file-certificate-outline.svg

<svg fill="currentColor" viewBox="0 0 24 24"><path d="M14 13v-2l-2 1-2-1v2l-2 1 2 1v2l2-1 2 1v-2l2-1M14 2H7a2 2 0 0 0-2 2v14a2 2 0 0 0 2 2h1v-2H7V4h6v4h4v10h-1v2h1a2 2 0 0 0 2-2V7m-5 6v-2l-2 1-2-1v2l-2 1 2 1v2l2-1 2 1v-2l2-1m-6 9 2-1 2 1v-5h-4m4-5v-2l-2 1-2-1v2l-2 1 2 1v2l2-1 2 1v-2l2-1Z"/></svg>

<svg  viewBox="0 0 24 24" fill="currentColor"><path  d="M14 13V11L12 12L10 11V13L8 14L10 15V17L12 16L14 17V15L16 14M14 2H7A2 2 0 0 0 5 4V18A2 2 0 0 0 7 20H8V18H7V4H13V8H17V18H16V20H17A2 2 0 0 0 19 18V7M14 13V11L12 12L10 11V13L8 14L10 15V17L12 16L14 17V15L16 14M10 23L12 22L14 23V18H10M14 13V11L12 12L10 11V13L8 14L10 15V17L12 16L14 17V15L16 14Z"/></svg>
